svg/black/vtho.svg

<?xml version="1.0" encoding="UTF-8"?>
<svg width="32px" height="32px" viewBox="0 0 32 32" version="1.1" xmlns="http://www.w3.org/2000/svg" xmlns:xlink="http://www.w3.org/1999/xlink">
    <!-- Generator: Sketch 53 (72520) - https://sketchapp.com -->
    <title>svg/black/vtho</title>
    <desc>Created with Sketch.</desc>
    <g id="black/vtho" stroke="none" stroke-width="1" fill="none" fill-rule="evenodd">
        <path d="M16,32 C7.163444,32 0,24.836556 0,16 C0,7.163444 7.163444,0 16,0 C24.836556,0 32,7.163444 32,16 C32,24.836556 24.836556,32 16,32 Z M20.2715232,5.05827815 L14.5092715,5.05827815 L10.0218543,16.8377483 L14.4728477,16.8377483 L10.5317881,26.9417219 L22.7119205,12.6417219 L17.6125828,12.6417219 L23.294702,5.05827815 L20.2715232,5.05827815 Z" id="Combined-Shape" fill="#000000" fill-rule="nonzero"></path>
    </g>
</svg>

<svg width="32" height="32" viewBox="0 0 32 32" xmlns="http://www.w3.org/2000/svg"><path d="M16 32C7.163 32 0 24.837 0 16S7.163 0 16 0s16 7.163 16 16-7.163 16-16 16zm4.272-26.942h-5.763l-4.487 11.78h4.45l-3.94 10.104 12.18-14.3h-5.1l5.683-7.584h-3.023z"/></svg>
